<?xml version="1.0" encoding="UTF-8"?>
<map version="1.10" tiledversion="1.11.2" orientation="orthogonal" renderorder="right-down" width="39" height="46" tilewidth="16" tileheight="16" infinite="1" nextlayerid="66" nextobjectid="65">
 <tileset firstgid="1" source="diner.tsx"/>
 <tileset firstgid="785" source="50sdiner_room_door_tiles1.tsx"/>
 <tileset firstgid="1649" source="50sdiner_room_door_tiles2.tsx"/>
 <layer id="60" name="global_floor" width="39" height="46" tintcolor="#fcf0b9">
  <data encoding="csv">
   <chunk x="0" y="0" width="16" height="16">
0,0,0,0,0,0,0,0,0,0,0,0,0,0,0,0,
0,0,0,0,0,0,0,0,0,0,0,0,0,0,0,0,
0,0,0,0,0,0,0,0,0,0,0,0,0,0,0,0,
0,0,0,0,0,0,0,0,0,0,0,0,0,0,0,0,
0,0,0,0,0,0,0,0,0,0,0,0,0,0,0,0,
0,0,0,0,0,0,0,0,0,0,0,0,0,0,0,0,
0,0,0,0,0,0,0,0,0,0,0,0,0,0,0,0,
137,137,138,137,137,137,138,137,138,137,138,137,138,137,138,137,
165,165,166,165,165,137,138,137,138,137,138,137,138,137,138,137,
137,137,138,137,137,165,166,165,166,165,166,165,166,165,166,165,
165,165,166,165,165,166,165,137,138,137,138,137,138,137,138,137,
137,137,138,137,137,138,137,137,138,137,138,137,138,137,138,137,
165,165,166,165,165,166,137,138,137,137,138,138,0,0,0,0,
137,137,138,137,137,138,137,137,138,165,166,165,138,0,0,0,
165,165,166,165,165,166,165,165,166,165,165,137,138,138,0,0,
137,137,138,137,137,138,137,138,138,137,138,165,166,165,138,0
</chunk>
   <chunk x="16" y="0" width="16" height="16">
0,0,0,0,0,0,0,0,0,0,0,0,0,0,0,0,
0,0,0,0,0,0,0,0,0,0,0,0,0,0,0,0,
0,0,0,0,0,0,0,0,0,0,0,0,0,0,0,0,
0,0,0,0,0,0,0,0,0,0,0,0,0,0,0,0,
0,0,0,0,0,0,0,0,0,0,0,0,0,0,0,0,
0,0,0,0,0,0,0,0,0,0,0,0,0,0,0,0,
0,0,0,0,0,0,0,0,0,0,0,0,0,0,0,0,
138,137,138,137,138,137,138,137,137,137,0,0,0,0,0,0,
138,137,166,137,138,137,138,137,137,137,0,0,0,0,0,0,
166,165,166,165,166,165,137,137,137,138,0,0,0,0,0,0,
138,137,138,137,138,138,138,165,165,166,0,0,0,0,0,0,
138,137,166,137,166,166,166,137,137,138,0,0,0,0,0,0,
0,0,138,165,138,138,138,165,165,166,0,0,0,0,0,0,
0,0,166,137,166,166,166,137,137,138,0,0,0,0,0,0,
0,0,138,165,138,138,138,165,165,166,0,0,0,0,0,0,
0,0,166,137,166,166,166,137,137,138,0,0,0,0,0,0
</chunk>
   <chunk x="0" y="16" width="16" height="16">
165,165,137,166,165,166,137,166,166,165,166,165,165,137,138,0,
137,137,165,138,137,138,137,138,138,137,138,137,138,165,166,138,
165,165,137,166,165,165,165,165,166,165,166,165,137,165,138,138,
137,137,165,138,137,137,137,137,137,137,137,138,138,137,166,165,
165,165,137,166,165,165,165,165,166,165,165,166,166,165,165,137,
137,137,165,138,137,137,137,137,138,137,138,137,138,137,138,165,
165,165,137,166,165,165,165,165,166,165,166,165,166,165,166,165,
137,137,165,138,137,137,137,137,138,137,138,137,138,137,138,137,
165,165,137,166,165,165,165,165,166,165,166,165,166,165,166,165,
137,137,165,138,137,137,137,138,137,138,137,138,137,138,137,138,
165,165,137,166,165,165,166,165,166,165,166,165,166,137,138,137,
137,137,165,138,137,138,137,137,137,137,138,137,138,137,138,137,
165,165,165,166,165,165,166,165,137,137,138,165,166,165,166,165,
137,137,138,137,138,165,166,165,165,165,137,165,166,165,166,165,
0,0,0,0,0,0,0,0,0,0,0,0,0,0,0,0,
0,0,0,0,0,0,0,0,0,0,0,0,0,0,0,0
</chunk>
   <chunk x="16" y="16" width="16" height="16">
0,0,138,165,138,138,138,165,165,166,0,0,0,0,0,0,
0,0,166,137,166,166,166,137,137,138,0,0,0,0,0,0,
0,0,138,165,138,138,138,165,165,166,0,0,0,0,0,0,
138,0,166,137,166,166,166,137,137,138,0,0,0,0,0,0,
138,0,138,165,138,138,138,165,165,166,0,0,0,0,0,0,
166,138,166,137,166,166,166,137,137,138,0,0,0,0,0,0,
138,137,138,165,138,138,138,165,165,166,0,0,0,0,0,0,
165,165,166,137,166,166,166,137,137,138,0,0,0,0,0,0,
166,137,138,165,138,138,138,165,165,166,0,0,0,0,0,0,
137,138,163,137,165,166,166,137,137,138,0,0,0,0,0,0,
138,166,165,165,166,165,138,137,165,166,0,0,0,0,0,0,
166,165,166,165,166,165,166,165,166,138,0,0,0,0,0,0,
138,137,137,138,137,138,137,137,138,166,0,0,0,0,0,0,
166,165,137,138,137,138,137,165,166,137,0,0,0,0,0,0,
0,0,0,0,0,0,0,0,0,0,0,0,0,0,0,0,
0,0,0,0,0,0,0,0,0,0,0,0,0,0,0,0
</chunk>
  </data>
 </layer>
 <objectgroup id="61" name="camera_center">
  <object id="46" type="camera_center" x="216" y="320">
   <ellipse/>
  </object>
 </objectgroup>
 <layer id="39" name="floor" width="39" height="46" visible="0">
  <data encoding="csv">
   <chunk x="0" y="0" width="16" height="16">
0,0,0,0,0,0,0,0,0,0,0,0,0,0,0,0,
0,0,0,0,0,0,0,0,0,0,0,0,0,0,0,0,
0,0,0,0,0,0,0,0,0,23,23,23,23,23,23,23,
0,0,0,0,0,0,0,0,0,51,23,23,23,23,24,51,
0,0,0,0,0,0,0,0,0,23,23,23,23,23,23,23,
0,0,0,0,0,0,0,51,52,51,51,51,51,51,23,23,
0,0,0,0,0,0,0,51,52,51,52,51,52,52,51,23,
0,0,0,0,0,0,0,51,52,51,52,24,51,52,51,51,
0,0,0,0,0,0,0,51,52,23,51,52,52,52,52,24,
0,0,0,0,0,0,0,51,52,51,52,24,24,51,52,52,
0,0,0,0,0,0,0,51,52,51,52,52,52,24,24,51,
0,0,0,0,0,0,0,51,52,51,51,51,52,52,52,52,
0,0,0,0,0,0,0,51,52,23,23,23,23,23,23,23,
0,0,0,0,0,0,0,51,52,51,51,51,51,51,51,51,
0,0,0,0,0,0,0,51,52,51,52,24,24,24,24,24,
0,0,0,0,0,0,0,51,52,51,52,52,52,52,52,52
</chunk>
   <chunk x="16" y="0" width="16" height="16">
0,0,0,0,0,0,0,0,0,0,0,0,0,0,0,0,
0,0,0,0,0,0,0,0,0,0,0,0,0,0,0,0,
23,23,24,0,0,0,0,0,0,0,0,0,0,0,0,0,
51,23,24,0,0,0,0,0,0,0,0,0,0,0,0,0,
24,23,24,0,0,0,0,0,0,0,0,0,0,0,0,0,
24,23,24,0,0,0,0,0,0,0,0,0,0,0,0,0,
24,23,24,0,0,0,0,0,0,0,0,0,0,0,0,0,
52,23,24,0,0,0,0,0,0,0,0,0,0,0,0,0,
24,23,24,0,0,0,0,0,0,0,0,0,0,0,0,0,
52,24,24,0,0,0,0,0,0,0,0,0,0,0,0,0,
52,52,52,0,0,0,0,0,0,0,0,0,0,0,0,0,
52,52,52,0,0,0,0,0,0,0,0,0,0,0,0,0,
23,23,24,0,0,0,0,0,0,0,0,0,0,0,0,0,
51,51,52,0,0,0,0,0,0,0,0,0,0,0,0,0,
24,24,24,0,0,0,0,0,0,0,0,0,0,0,0,0,
52,52,52,0,0,0,0,0,0,0,0,0,0,0,0,0
</chunk>
  </data>
 </layer>
 <group id="38" name="area01" class="area">
  <layer id="1" name="floor" width="39" height="46">
   <data encoding="csv">
    <chunk x="0" y="16" width="16" height="16">
0,0,0,0,0,0,0,0,24,23,23,23,23,23,23,51,
0,0,0,0,0,0,0,0,24,51,23,24,24,51,51,51,
0,0,0,0,0,0,0,0,24,51,51,52,52,24,24,24,
0,0,0,0,0,0,0,0,24,51,52,51,52,52,52,52,
0,0,0,0,0,0,0,0,24,23,23,23,23,23,23,23,
0,0,0,0,0,0,0,0,24,51,51,51,51,23,23,24,
0,0,0,0,0,0,0,0,24,51,23,23,23,51,23,24,
0,0,0,0,0,0,0,0,24,23,23,23,51,51,51,23,
0,0,0,0,0,0,0,0,24,51,23,23,51,52,24,51,
0,0,0,0,0,0,0,0,52,51,51,51,51,52,52,24,
0,0,0,0,0,0,0,0,0,0,0,0,0,0,0,0,
0,0,0,0,0,0,0,0,0,0,0,0,0,0,0,0,
0,0,0,0,0,0,0,0,0,0,0,0,0,0,0,0,
0,0,0,0,0,0,0,0,0,0,0,0,0,0,0,0,
0,0,0,0,0,0,0,0,0,0,0,0,0,0,0,0,
0,0,0,0,0,0,0,0,0,0,0,0,0,0,0,0
</chunk>
    <chunk x="16" y="16" width="16" height="16">
23,23,24,0,0,0,0,0,0,0,0,0,0,0,0,0,
51,23,24,0,0,0,0,0,0,0,0,0,0,0,0,0,
24,24,24,0,0,0,0,0,0,0,0,0,0,0,0,0,
52,52,52,0,0,0,0,0,0,0,0,0,0,0,0,0,
24,23,24,0,0,0,0,0,0,0,0,0,0,0,0,0,
24,23,24,0,0,0,0,0,0,0,0,0,0,0,0,0,
24,23,24,0,0,0,0,0,0,0,0,0,0,0,0,0,
24,24,24,0,0,0,0,0,0,0,0,0,0,0,0,0,
52,24,24,0,0,0,0,0,0,0,0,0,0,0,0,0,
24,52,24,0,0,0,0,0,0,0,0,0,0,0,0,0,
0,0,0,0,0,0,0,0,0,0,0,0,0,0,0,0,
0,0,0,0,0,0,0,0,0,0,0,0,0,0,0,0,
0,0,0,0,0,0,0,0,0,0,0,0,0,0,0,0,
0,0,0,0,0,0,0,0,0,0,0,0,0,0,0,0,
0,0,0,0,0,0,0,0,0,0,0,0,0,0,0,0,
0,0,0,0,0,0,0,0,0,0,0,0,0,0,0,0
</chunk>
   </data>
  </layer>
  <layer id="11" name="wall" width="39" height="46">
   <data encoding="csv">
    <chunk x="0" y="0" width="16" height="16">
0,0,0,0,0,0,0,0,0,0,0,0,0,0,0,0,
0,0,0,0,0,0,0,0,0,0,0,0,0,0,0,0,
0,0,0,0,0,0,0,0,0,0,0,0,0,0,0,0,
0,0,0,0,0,0,0,0,0,0,0,0,0,0,0,0,
0,0,0,0,0,0,0,0,0,0,0,0,0,0,0,0,
0,0,0,0,0,0,0,0,0,0,0,0,0,0,0,0,
0,0,0,0,0,0,0,0,0,0,0,0,0,0,0,0,
0,0,0,0,0,0,0,0,0,0,0,0,0,0,0,0,
0,0,0,0,0,0,0,0,0,0,0,0,0,0,0,0,
0,0,0,0,0,0,0,0,0,0,0,0,0,0,0,0,
0,0,0,0,0,0,0,0,0,0,0,0,0,0,0,0,
0,0,0,0,0,0,0,0,0,0,0,0,0,0,0,0,
0,0,0,0,0,0,0,139,140,139,140,140,140,140,140,140,
0,0,0,0,0,0,0,167,168,167,168,168,168,168,168,168,
0,0,0,0,0,0,0,195,196,195,196,196,196,196,196,196,
0,0,0,0,0,0,0,223,224,223,224,224,224,224,224,224
</chunk>
    <chunk x="16" y="0" width="16" height="16">
0,0,0,0,0,0,0,0,0,0,0,0,0,0,0,0,
0,0,0,0,0,0,0,0,0,0,0,0,0,0,0,0,
0,0,0,0,0,0,0,0,0,0,0,0,0,0,0,0,
0,0,0,0,0,0,0,0,0,0,0,0,0,0,0,0,
0,0,0,0,0,0,0,0,0,0,0,0,0,0,0,0,
0,0,0,0,0,0,0,0,0,0,0,0,0,0,0,0,
0,0,0,0,0,0,0,0,0,0,0,0,0,0,0,0,
0,0,0,0,0,0,0,0,0,0,0,0,0,0,0,0,
0,0,0,0,0,0,0,0,0,0,0,0,0,0,0,0,
0,0,0,0,0,0,0,0,0,0,0,0,0,0,0,0,
0,0,0,0,0,0,0,0,0,0,0,0,0,0,0,0,
0,0,0,0,0,0,0,0,0,0,0,0,0,0,0,0,
140,140,140,0,0,0,0,0,0,0,0,0,0,0,0,0,
168,168,168,0,0,0,0,0,0,0,0,0,0,0,0,0,
196,196,196,0,0,0,0,0,0,0,0,0,0,0,0,0,
224,224,224,0,0,0,0,0,0,0,0,0,0,0,0,0
</chunk>
   </data>
  </layer>
  <group id="54" name="table_00" class="table">
   <properties>
    <property name="index" type="int" value="0"/>
   </properties>
   <objectgroup id="56" name="テーブルなのでoffset+1">
    <object id="34" type="customer" x="208" y="272" width="16" height="16">
     <properties>
      <property name="direction" value="left"/>
      <property name="offset" type="float" value="1"/>
     </properties>
     <ellipse/>
    </object>
    <object id="64" type="customer" x="208" y="304" width="16" height="16">
     <properties>
      <property name="direction" value="left"/>
      <property name="offset" type="float" value="1"/>
     </properties>
     <ellipse/>
    </object>
   </objectgroup>
   <layer id="35" name="3" class="table" width="39" height="46">
    <data encoding="csv">
     <chunk x="0" y="16" width="16" height="16">
0,0,0,0,0,0,0,0,0,0,0,0,0,0,0,0,
0,0,0,0,0,0,0,0,0,0,0,0,0,177,0,0,
0,0,0,0,0,0,0,0,0,0,0,0,0,205,0,0,
0,0,0,0,0,0,0,0,0,0,0,0,0,177,0,0,
0,0,0,0,0,0,0,0,0,0,0,0,0,205,0,0,
0,0,0,0,0,0,0,0,0,0,0,0,0,0,0,0,
0,0,0,0,0,0,0,0,0,0,0,0,0,0,0,0,
0,0,0,0,0,0,0,0,0,0,0,0,0,0,0,0,
0,0,0,0,0,0,0,0,0,0,0,0,0,0,0,0,
0,0,0,0,0,0,0,0,0,0,0,0,0,0,0,0,
0,0,0,0,0,0,0,0,0,0,0,0,0,0,0,0,
0,0,0,0,0,0,0,0,0,0,0,0,0,0,0,0,
0,0,0,0,0,0,0,0,0,0,0,0,0,0,0,0,
0,0,0,0,0,0,0,0,0,0,0,0,0,0,0,0,
0,0,0,0,0,0,0,0,0,0,0,0,0,0,0,0,
0,0,0,0,0,0,0,0,0,0,0,0,0,0,0,0
</chunk>
    </data>
   </layer>
  </group>
  <group id="55" name="table_01" class="table">
   <properties>
    <property name="index" type="int" value="1"/>
   </properties>
   <layer id="30" name="2" class="table" width="39" height="46" offsetx="-32" offsety="0">
    <data encoding="csv">
     <chunk x="0" y="16" width="16" height="16">
0,0,0,0,0,0,0,0,0,0,0,0,0,0,0,0,
0,0,0,0,0,0,0,0,0,0,0,0,0,0,0,0,
0,0,0,0,0,0,0,0,0,0,0,0,0,0,0,0,
0,0,0,0,0,0,0,0,0,0,0,0,0,0,0,0,
0,0,0,0,0,0,0,0,0,0,0,0,0,0,0,0,
0,0,0,0,0,0,0,0,0,0,0,0,0,0,0,0,
0,0,0,0,0,0,0,0,0,0,0,0,0,0,0,0,
0,0,0,0,0,0,0,0,0,0,2147483678,35,36,30,0,0,
0,0,0,0,0,0,0,0,0,0,2147483706,63,64,58,0,0,
0,0,0,0,0,0,0,0,0,0,2147483734,91,92,86,0,0,
0,0,0,0,0,0,0,0,0,0,0,0,0,0,0,0,
0,0,0,0,0,0,0,0,0,0,0,0,0,0,0,0,
0,0,0,0,0,0,0,0,0,0,0,0,0,0,0,0,
0,0,0,0,0,0,0,0,0,0,0,0,0,0,0,0,
0,0,0,0,0,0,0,0,0,0,0,0,0,0,0,0,
0,0,0,0,0,0,0,0,0,0,0,0,0,0,0,0
</chunk>
    </data>
   </layer>
   <objectgroup id="58" name="オブジェクトレイヤー3">
    <object id="40" type="customer" x="128" y="384" width="16" height="16">
     <properties>
      <property name="direction" value="right"/>
     </properties>
     <ellipse/>
    </object>
    <object id="41" type="customer" x="176" y="384" width="16" height="16">
     <properties>
      <property name="direction" value="left"/>
     </properties>
     <ellipse/>
    </object>
   </objectgroup>
  </group>
  <group id="43" name="table_02" class="table" offsetx="0" offsety="8">
   <properties>
    <property name="index" type="int" value="2"/>
   </properties>
   <layer id="44" name="0_chair" width="39" height="46">
    <data encoding="csv">
     <chunk x="16" y="16" width="16" height="16">
0,0,0,0,0,0,0,0,0,0,0,0,0,0,0,0,
0,0,0,0,0,0,0,0,0,0,0,0,0,0,0,0,
0,0,0,0,0,0,0,0,0,0,0,0,0,0,0,0,
0,0,0,0,0,0,0,0,0,0,0,0,0,0,0,0,
0,0,0,0,0,0,0,0,0,0,0,0,0,0,0,0,
174,175,176,0,0,0,0,0,0,0,0,0,0,0,0,0,
202,203,204,0,0,0,0,0,0,0,0,0,0,0,0,0,
0,0,0,0,0,0,0,0,0,0,0,0,0,0,0,0,
0,0,0,0,0,0,0,0,0,0,0,0,0,0,0,0,
0,0,0,0,0,0,0,0,0,0,0,0,0,0,0,0,
0,0,0,0,0,0,0,0,0,0,0,0,0,0,0,0,
0,0,0,0,0,0,0,0,0,0,0,0,0,0,0,0,
0,0,0,0,0,0,0,0,0,0,0,0,0,0,0,0,
0,0,0,0,0,0,0,0,0,0,0,0,0,0,0,0,
0,0,0,0,0,0,0,0,0,0,0,0,0,0,0,0,
0,0,0,0,0,0,0,0,0,0,0,0,0,0,0,0
</chunk>
    </data>
   </layer>
   <layer id="45" name="1_table" width="39" height="46">
    <data encoding="csv">
     <chunk x="16" y="16" width="16" height="16">
0,0,0,0,0,0,0,0,0,0,0,0,0,0,0,0,
0,0,0,0,0,0,0,0,0,0,0,0,0,0,0,0,
0,0,0,0,0,0,0,0,0,0,0,0,0,0,0,0,
65,66,67,0,0,0,0,0,0,0,0,0,0,0,0,0,
93,94,95,0,0,0,0,0,0,0,0,0,0,0,0,0,
0,0,0,0,0,0,0,0,0,0,0,0,0,0,0,0,
0,0,0,0,0,0,0,0,0,0,0,0,0,0,0,0,
0,0,0,0,0,0,0,0,0,0,0,0,0,0,0,0,
0,0,0,0,0,0,0,0,0,0,0,0,0,0,0,0,
0,0,0,0,0,0,0,0,0,0,0,0,0,0,0,0,
0,0,0,0,0,0,0,0,0,0,0,0,0,0,0,0,
0,0,0,0,0,0,0,0,0,0,0,0,0,0,0,0,
0,0,0,0,0,0,0,0,0,0,0,0,0,0,0,0,
0,0,0,0,0,0,0,0,0,0,0,0,0,0,0,0,
0,0,0,0,0,0,0,0,0,0,0,0,0,0,0,0,
0,0,0,0,0,0,0,0,0,0,0,0,0,0,0,0
</chunk>
    </data>
   </layer>
   <layer id="46" name="2_chair" width="39" height="46">
    <data encoding="csv">
     <chunk x="16" y="16" width="16" height="16">
143,144,145,0,0,0,0,0,0,0,0,0,0,0,0,0,
171,172,173,0,0,0,0,0,0,0,0,0,0,0,0,0,
199,200,201,0,0,0,0,0,0,0,0,0,0,0,0,0,
0,0,0,0,0,0,0,0,0,0,0,0,0,0,0,0,
0,0,0,0,0,0,0,0,0,0,0,0,0,0,0,0,
0,0,0,0,0,0,0,0,0,0,0,0,0,0,0,0,
0,0,0,0,0,0,0,0,0,0,0,0,0,0,0,0,
0,0,0,0,0,0,0,0,0,0,0,0,0,0,0,0,
0,0,0,0,0,0,0,0,0,0,0,0,0,0,0,0,
0,0,0,0,0,0,0,0,0,0,0,0,0,0,0,0,
0,0,0,0,0,0,0,0,0,0,0,0,0,0,0,0,
0,0,0,0,0,0,0,0,0,0,0,0,0,0,0,0,
0,0,0,0,0,0,0,0,0,0,0,0,0,0,0,0,
0,0,0,0,0,0,0,0,0,0,0,0,0,0,0,0,
0,0,0,0,0,0,0,0,0,0,0,0,0,0,0,0,
0,0,0,0,0,0,0,0,0,0,0,0,0,0,0,0
</chunk>
    </data>
   </layer>
   <objectgroup id="59" name="オブジェクトレイヤー4">
    <object id="42" type="customer" x="264" y="280" width="16" height="16">
     <properties>
      <property name="direction" value="down"/>
     </properties>
     <ellipse/>
    </object>
    <object id="43" type="customer" x="280" y="280" width="16" height="16">
     <properties>
      <property name="direction" value="down"/>
     </properties>
     <ellipse/>
    </object>
    <object id="44" type="customer" x="280" y="336" width="16" height="16">
     <properties>
      <property name="direction" value="up"/>
     </properties>
     <ellipse/>
    </object>
    <object id="45" type="customer" x="264" y="336" width="16" height="16">
     <properties>
      <property name="direction" value="up"/>
     </properties>
     <ellipse/>
    </object>
   </objectgroup>
  </group>
  <layer id="10" name="objects_01" width="39" height="46">
   <data encoding="csv">
    <chunk x="0" y="0" width="16" height="16">
0,0,0,0,0,0,0,0,0,0,0,0,0,0,0,0,
0,0,0,0,0,0,0,0,0,0,0,0,0,0,0,0,
0,0,0,0,0,0,0,0,0,0,0,0,0,0,0,0,
0,0,0,0,0,0,0,0,0,0,0,0,0,0,0,0,
0,0,0,0,0,0,0,0,0,0,0,0,0,0,0,0,
0,0,0,0,0,0,0,0,0,0,0,0,0,0,0,0,
0,0,0,0,0,0,0,0,0,0,0,0,0,0,0,0,
0,0,0,0,0,0,0,0,0,0,0,0,0,0,0,0,
0,0,0,0,0,0,0,0,0,0,0,0,0,0,0,0,
0,0,0,0,0,0,0,0,0,0,0,0,0,0,0,0,
0,0,0,0,0,0,0,0,0,0,0,0,0,0,0,0,
0,0,0,0,0,0,0,0,0,0,0,0,0,0,0,0,
0,0,0,0,0,0,0,0,0,0,0,0,0,0,0,0,
0,0,0,0,0,0,0,0,0,0,0,0,0,0,0,0,
0,0,0,0,0,0,0,16,17,158,159,20,21,0,0,0,
0,0,0,0,0,0,0,44,45,186,187,48,49,0,0,0
</chunk>
    <chunk x="0" y="16" width="16" height="16">
0,0,0,0,0,0,0,72,73,214,215,76,77,0,0,0,
0,0,0,0,0,0,0,128,129,0,0,154,155,0,0,0,
0,0,0,0,0,0,0,100,101,102,103,104,105,0,0,0,
0,0,0,0,0,0,0,128,129,0,0,132,133,0,0,0,
0,0,0,0,0,0,0,156,157,0,0,160,161,0,0,0,
0,0,0,0,0,0,0,184,185,0,0,188,189,0,0,0,
0,0,0,0,0,0,0,212,213,0,0,216,217,0,0,0,
0,0,0,0,0,0,0,0,0,0,0,0,0,0,0,0,
0,0,0,0,0,0,0,0,0,0,0,0,0,0,0,0,
0,0,0,0,0,0,0,0,0,0,0,0,0,0,0,0,
0,0,0,0,0,0,0,0,0,0,0,0,0,0,0,0,
0,0,0,0,0,0,0,0,0,0,0,0,0,0,0,0,
0,0,0,0,0,0,0,0,0,0,0,0,0,0,0,0,
0,0,0,0,0,0,0,0,0,0,0,0,0,0,0,0,
0,0,0,0,0,0,0,0,0,0,0,0,0,0,0,0,
0,0,0,0,0,0,0,0,0,0,0,0,0,0,0,0
</chunk>
    <chunk x="16" y="16" width="16" height="16">
0,0,0,0,0,0,0,0,0,0,0,0,0,0,0,0,
0,0,0,0,0,0,0,0,0,0,0,0,0,0,0,0,
0,0,0,0,0,0,0,0,0,0,0,0,0,0,0,0,
0,0,0,0,0,0,0,0,0,0,0,0,0,0,0,0,
0,0,0,0,0,0,0,0,0,0,0,0,0,0,0,0,
0,0,0,0,0,0,0,0,0,0,0,0,0,0,0,0,
0,705,706,0,0,0,0,0,0,0,0,0,0,0,0,0,
0,733,734,0,0,0,0,0,0,0,0,0,0,0,0,0,
0,761,762,0,0,0,0,0,0,0,0,0,0,0,0,0,
0,0,0,0,0,0,0,0,0,0,0,0,0,0,0,0,
0,0,0,0,0,0,0,0,0,0,0,0,0,0,0,0,
0,0,0,0,0,0,0,0,0,0,0,0,0,0,0,0,
0,0,0,0,0,0,0,0,0,0,0,0,0,0,0,0,
0,0,0,0,0,0,0,0,0,0,0,0,0,0,0,0,
0,0,0,0,0,0,0,0,0,0,0,0,0,0,0,0,
0,0,0,0,0,0,0,0,0,0,0,0,0,0,0,0
</chunk>
   </data>
  </layer>
  <layer id="36" name="objects_02" width="39" height="46">
   <data encoding="csv">
    <chunk x="0" y="0" width="16" height="16">
0,0,0,0,0,0,0,0,0,0,0,0,0,0,0,0,
0,0,0,0,0,0,0,0,0,0,0,0,0,0,0,0,
0,0,0,0,0,0,0,0,0,0,0,0,0,0,0,0,
0,0,0,0,0,0,0,0,0,0,0,0,0,0,0,0,
0,0,0,0,0,0,0,0,0,0,0,0,0,0,0,0,
0,0,0,0,0,0,0,0,0,0,0,0,0,0,0,0,
0,0,0,0,0,0,0,0,0,0,0,0,0,0,0,0,
0,0,0,0,0,0,0,0,0,0,0,0,0,0,0,0,
0,0,0,0,0,0,0,0,0,0,0,0,0,0,0,0,
0,0,0,0,0,0,0,0,0,0,0,0,0,0,0,0,
0,0,0,0,0,0,0,0,0,0,0,0,0,0,0,0,
0,0,0,0,0,0,0,0,0,0,0,0,0,0,0,0,
0,0,0,0,0,0,0,0,0,0,0,0,0,0,0,0,
0,0,0,0,0,0,0,0,0,687,688,0,0,0,0,0,
0,0,0,0,0,0,0,0,0,715,716,682,0,0,0,0,
0,0,0,0,0,0,0,0,0,0,0,710,0,0,0,0
</chunk>
    <chunk x="0" y="16" width="16" height="16">
0,0,0,0,0,0,0,0,692,0,0,0,0,0,0,0,
0,0,0,0,0,0,0,0,720,0,0,0,0,0,0,0,
0,0,0,0,0,0,0,0,695,0,0,0,0,0,0,0,
0,0,0,0,0,0,0,0,723,0,0,0,0,0,0,0,
0,0,0,0,0,0,0,0,0,0,0,689,0,0,0,0,
0,0,0,0,0,0,0,0,0,0,0,0,0,0,0,0,
0,0,0,0,0,0,0,0,0,0,0,0,0,0,0,0,
0,0,0,0,0,0,0,0,0,0,0,0,0,0,0,0,
0,0,0,0,0,0,0,0,0,0,0,0,0,0,0,0,
0,0,0,0,0,0,0,0,0,0,0,0,0,0,0,0,
0,0,0,0,0,0,0,0,0,0,0,0,0,0,0,0,
0,0,0,0,0,0,0,0,0,0,0,0,0,0,0,0,
0,0,0,0,0,0,0,0,0,0,0,0,0,0,0,0,
0,0,0,0,0,0,0,0,0,0,0,0,0,0,0,0,
0,0,0,0,0,0,0,0,0,0,0,0,0,0,0,0,
0,0,0,0,0,0,0,0,0,0,0,0,0,0,0,0
</chunk>
   </data>
  </layer>
  <objectgroup id="37" name="飾り">
   <object id="26" gid="776" x="133" y="340" width="16" height="16"/>
   <object id="27" gid="776" x="187" y="344" width="16" height="16"/>
   <object id="28" gid="780" x="260" y="325" width="16" height="16"/>
   <object id="29" gid="780" x="184" y="387" width="16" height="16"/>
  </objectgroup>
  <layer id="33" name="counter_closed_01" width="39" height="46">
   <data encoding="csv">
    <chunk x="0" y="16" width="16" height="16">
0,0,0,0,0,0,0,0,0,0,0,0,0,0,0,0,
0,0,0,0,0,0,0,0,0,0,0,0,0,0,0,0,
0,0,0,0,0,0,0,0,0,0,0,0,0,0,0,0,
0,0,0,0,0,0,0,0,0,0,0,0,0,0,0,0,
0,0,0,0,0,0,0,0,0,18,19,0,0,0,0,0,
0,0,0,0,0,0,0,0,0,46,47,0,0,0,0,0,
0,0,0,0,0,0,0,0,0,74,75,0,0,0,0,0,
0,0,0,0,0,0,0,0,0,0,0,0,0,0,0,0,
0,0,0,0,0,0,0,0,0,0,0,0,0,0,0,0,
0,0,0,0,0,0,0,0,0,0,0,0,0,0,0,0,
0,0,0,0,0,0,0,0,0,0,0,0,0,0,0,0,
0,0,0,0,0,0,0,0,0,0,0,0,0,0,0,0,
0,0,0,0,0,0,0,0,0,0,0,0,0,0,0,0,
0,0,0,0,0,0,0,0,0,0,0,0,0,0,0,0,
0,0,0,0,0,0,0,0,0,0,0,0,0,0,0,0,
0,0,0,0,0,0,0,0,0,0,0,0,0,0,0,0
</chunk>
   </data>
  </layer>
  <objectgroup id="63" name="客スポーン">
   <object id="52" type="spawn" x="256" y="416">
    <properties>
     <property name="direction" value="up"/>
    </properties>
    <ellipse/>
   </object>
  </objectgroup>
  <objectgroup id="62" name="店員" class="staff">
   <object id="47" type="staff" x="152" y="304">
    <properties>
     <property name="index" type="int" value="0"/>
    </properties>
    <ellipse/>
   </object>
   <object id="48" type="staff" x="160" y="280">
    <properties>
     <property name="index" type="int" value="1"/>
    </properties>
    <ellipse/>
   </object>
   <object id="50" type="staff" x="240" y="272">
    <properties>
     <property name="index" type="int" value="2"/>
    </properties>
    <ellipse/>
   </object>
   <object id="51" type="staff" x="240" y="336">
    <properties>
     <property name="index" type="int" value="3"/>
    </properties>
    <ellipse/>
   </object>
  </objectgroup>
  <layer id="65" name="マスク用のタイル" width="39" height="46">
   <data encoding="csv">
    <chunk x="0" y="0" width="16" height="16">
0,0,0,0,0,0,0,0,0,0,0,0,0,0,0,0,
0,0,0,0,0,0,0,0,0,0,0,0,0,0,0,0,
0,0,0,0,0,0,0,0,0,0,0,0,0,0,0,0,
0,0,0,0,0,0,0,0,0,0,0,0,0,0,0,0,
0,0,0,0,0,0,0,0,0,0,0,0,0,0,0,0,
0,0,0,0,0,0,0,0,0,0,0,0,0,0,0,0,
0,0,0,0,0,0,0,0,0,0,0,0,0,0,0,0,
0,0,0,0,0,0,0,0,0,0,0,0,0,0,0,0,
0,0,0,0,0,0,0,0,0,0,0,0,0,0,0,0,
0,0,0,0,0,0,0,0,0,0,0,0,0,0,0,0,
0,0,0,0,0,0,0,0,0,0,0,0,0,0,0,0,
0,0,0,0,0,0,135,136,0,0,0,0,0,0,0,0,
0,0,0,0,0,0,135,136,0,0,0,0,0,0,0,0,
0,0,0,0,0,0,135,136,0,0,0,0,0,0,0,0,
0,0,0,0,0,0,135,136,0,0,0,0,0,0,0,0,
0,0,0,0,0,0,135,136,0,0,0,0,0,0,0,0
</chunk>
    <chunk x="0" y="16" width="16" height="16">
0,0,0,0,0,0,135,136,0,0,0,0,0,0,0,0,
0,0,0,0,0,0,135,136,0,0,0,0,0,0,0,0,
0,0,0,0,0,0,135,136,0,0,0,0,0,0,0,0,
0,0,0,0,0,0,135,136,0,0,0,0,0,0,0,0,
0,0,0,0,0,0,135,136,0,0,0,0,0,0,0,0,
0,0,0,0,0,0,135,136,0,0,0,0,0,0,0,0,
0,0,0,0,0,0,135,136,0,0,0,0,0,0,0,0,
0,0,0,0,0,0,135,136,0,0,0,0,0,0,0,0,
0,0,0,0,0,0,135,136,0,0,0,0,0,0,0,0,
0,0,0,0,0,0,135,136,0,0,0,0,0,0,0,0,
0,0,0,0,0,0,163,164,0,0,0,0,0,0,0,0,
0,0,0,0,0,0,0,0,0,0,0,0,0,0,0,0,
0,0,0,0,0,0,0,0,0,0,0,0,0,0,0,0,
0,0,0,0,0,0,0,0,0,0,0,0,0,0,0,0,
0,0,0,0,0,0,0,0,0,0,0,0,0,0,0,0,
0,0,0,0,0,0,0,0,0,0,0,0,0,0,0,0
</chunk>
   </data>
  </layer>
  <layer id="15" name="frame" width="39" height="46">
   <data encoding="csv">
    <chunk x="0" y="0" width="16" height="16">
0,0,0,0,0,0,0,0,0,0,0,0,0,0,0,0,
0,0,0,0,0,0,0,0,0,0,0,0,0,0,0,0,
0,0,0,0,0,0,0,0,0,0,0,0,0,0,0,0,
0,0,0,0,0,0,0,0,0,0,0,0,0,0,0,0,
0,0,0,0,0,0,0,0,0,0,0,0,0,0,0,0,
0,0,0,0,0,0,0,0,0,0,0,0,0,0,0,0,
0,0,0,0,0,0,0,0,0,0,0,0,0,0,0,0,
0,0,0,0,0,0,0,0,0,0,0,0,0,0,0,0,
0,0,0,0,0,0,0,0,0,0,0,0,0,0,0,0,
0,0,0,0,0,0,0,0,0,0,0,0,0,0,0,0,
0,0,0,0,0,0,0,0,0,0,0,0,0,0,0,0,
0,0,0,0,0,0,0,894,896,896,896,896,896,896,896,896,
0,0,0,0,0,0,0,930,0,0,0,0,0,0,0,0,
0,0,0,0,0,0,0,930,0,0,0,0,0,0,0,0,
0,0,0,0,0,0,0,930,0,0,0,0,0,0,0,0,
0,0,0,0,0,0,0,930,0,0,0,0,0,0,0,0
</chunk>
    <chunk x="16" y="0" width="16" height="16">
0,0,0,0,0,0,0,0,0,0,0,0,0,0,0,0,
0,0,0,0,0,0,0,0,0,0,0,0,0,0,0,0,
0,0,0,0,0,0,0,0,0,0,0,0,0,0,0,0,
0,0,0,0,0,0,0,0,0,0,0,0,0,0,0,0,
0,0,0,0,0,0,0,0,0,0,0,0,0,0,0,0,
0,0,0,0,0,0,0,0,0,0,0,0,0,0,0,0,
0,0,0,0,0,0,0,0,0,0,0,0,0,0,0,0,
0,0,0,0,0,0,0,0,0,0,0,0,0,0,0,0,
0,0,0,0,0,0,0,0,0,0,0,0,0,0,0,0,
0,0,0,0,0,0,0,0,0,0,0,0,0,0,0,0,
0,0,0,0,0,0,0,0,0,0,0,0,0,0,0,0,
896,896,898,899,0,0,0,0,0,0,0,0,0,0,0,0,
0,0,934,935,0,0,0,0,0,0,0,0,0,0,0,0,
0,0,0,971,0,0,0,0,0,0,0,0,0,0,0,0,
0,0,0,971,0,0,0,0,0,0,0,0,0,0,0,0,
0,0,0,971,0,0,0,0,0,0,0,0,0,0,0,0
</chunk>
    <chunk x="0" y="16" width="16" height="16">
0,0,0,0,0,0,0,930,0,0,0,0,0,0,0,0,
0,0,0,0,0,0,0,930,0,0,0,0,0,0,0,0,
0,0,0,0,0,0,0,930,0,0,0,0,0,0,0,0,
0,0,0,0,0,0,0,930,0,0,0,0,0,0,0,0,
0,0,0,0,0,0,0,930,0,0,0,0,0,0,0,0,
0,0,0,0,0,0,0,930,0,0,0,0,0,0,0,0,
0,0,0,0,0,0,0,930,0,0,0,0,0,0,0,0,
0,0,0,0,0,0,0,930,0,0,0,0,0,0,0,0,
0,0,0,0,0,0,0,930,0,0,0,0,0,0,0,0,
0,0,0,0,0,0,0,930,0,1111,0,0,0,0,0,0,
0,0,0,0,0,0,0,1146,1148,1148,1148,1148,1148,1148,1296,0,
0,0,0,0,0,0,0,0,0,0,0,0,0,0,0,0,
0,0,0,0,0,0,0,0,0,0,0,0,0,0,0,0,
0,0,0,0,0,0,0,0,0,0,0,0,0,0,0,0,
0,0,0,0,0,0,0,0,0,0,0,0,0,0,0,0,
0,0,0,0,0,0,0,0,0,0,0,0,0,0,0,0
</chunk>
    <chunk x="16" y="16" width="16" height="16">
0,0,0,971,0,0,0,0,0,0,0,0,0,0,0,0,
0,0,0,971,0,0,0,0,0,0,0,0,0,0,0,0,
0,0,0,971,0,0,0,0,0,0,0,0,0,0,0,0,
0,0,0,971,0,0,0,0,0,0,0,0,0,0,0,0,
0,0,0,971,0,0,0,0,0,0,0,0,0,0,0,0,
0,0,0,971,0,0,0,0,0,0,0,0,0,0,0,0,
0,0,0,971,0,0,0,0,0,0,0,0,0,0,0,0,
0,0,0,971,0,0,0,0,0,0,0,0,0,0,0,0,
0,0,0,971,0,0,0,0,0,0,0,0,0,0,0,0,
0,0,1114,1115,0,0,0,0,0,0,0,0,0,0,0,0,
0,1291,1150,1151,0,0,0,0,0,0,0,0,0,0,0,0,
0,0,0,0,0,0,0,0,0,0,0,0,0,0,0,0,
0,0,0,0,0,0,0,0,0,0,0,0,0,0,0,0,
0,0,0,0,0,0,0,0,0,0,0,0,0,0,0,0,
0,0,0,0,0,0,0,0,0,0,0,0,0,0,0,0,
0,0,0,0,0,0,0,0,0,0,0,0,0,0,0,0
</chunk>
   </data>
  </layer>
  <objectgroup id="64" name="当たり判定">
   <object id="53" x="112" y="416" width="128" height="16">
    <properties>
     <property name="collision" type="bool" value="true"/>
    </properties>
   </object>
   <object id="54" x="112" y="176" width="16" height="248">
    <properties>
     <property name="collision" type="bool" value="true"/>
    </properties>
   </object>
   <object id="57" x="112" y="176" width="208" height="16">
    <properties>
     <property name="collision" type="bool" value="true"/>
    </properties>
   </object>
   <object id="58" x="304" y="176" width="16" height="256">
    <properties>
     <property name="collision" type="bool" value="true"/>
    </properties>
   </object>
   <object id="60" x="272" y="416" width="48" height="16">
    <properties>
     <property name="collision" type="bool" value="true"/>
    </properties>
   </object>
  </objectgroup>
 </group>
 <group id="42" name="area2" visible="0">
  <layer id="41" name="wall" width="39" height="46">
   <data encoding="csv">
    <chunk x="0" y="0" width="16" height="16">
0,0,0,0,0,0,0,0,0,0,0,0,0,0,0,0,
0,0,0,0,0,0,0,139,140,139,139,139,139,139,139,139,
0,0,0,0,0,0,0,167,168,167,167,167,167,167,167,167,
0,0,0,0,0,0,0,195,196,195,195,195,195,195,195,195,
0,0,0,0,0,0,0,223,224,223,223,223,223,223,223,223,
0,0,0,0,0,0,0,0,0,0,0,0,0,0,0,0,
0,0,0,0,0,0,0,0,0,0,0,0,0,0,0,0,
0,0,0,0,0,0,0,0,0,0,0,0,0,0,0,0,
0,0,0,0,0,0,0,0,0,0,0,0,0,0,0,0,
0,0,0,0,0,0,0,0,0,0,0,0,0,0,0,0,
0,0,0,0,0,0,0,0,0,0,0,0,0,0,0,0,
0,0,0,0,0,0,0,0,0,0,0,0,0,0,0,0,
0,0,0,0,0,0,0,0,0,0,0,0,0,0,0,0,
0,0,0,0,0,0,0,0,0,0,0,0,0,0,0,0,
0,0,0,0,0,0,0,0,0,0,0,0,0,0,0,0,
0,0,0,0,0,0,0,0,0,0,0,0,0,0,0,0
</chunk>
    <chunk x="16" y="0" width="16" height="16">
0,0,0,0,0,0,0,0,0,0,0,0,0,0,0,0,
139,139,140,0,0,0,0,0,0,0,0,0,0,0,0,0,
167,167,168,0,0,0,0,0,0,0,0,0,0,0,0,0,
195,195,196,0,0,0,0,0,0,0,0,0,0,0,0,0,
223,223,224,0,0,0,0,0,0,0,0,0,0,0,0,0,
0,0,0,0,0,0,0,0,0,0,0,0,0,0,0,0,
0,0,0,0,0,0,0,0,0,0,0,0,0,0,0,0,
0,0,0,0,0,0,0,0,0,0,0,0,0,0,0,0,
0,0,0,0,0,0,0,0,0,0,0,0,0,0,0,0,
0,0,0,0,0,0,0,0,0,0,0,0,0,0,0,0,
0,0,0,0,0,0,0,0,0,0,0,0,0,0,0,0,
0,0,0,0,0,0,0,0,0,0,0,0,0,0,0,0,
0,0,0,0,0,0,0,0,0,0,0,0,0,0,0,0,
0,0,0,0,0,0,0,0,0,0,0,0,0,0,0,0,
0,0,0,0,0,0,0,0,0,0,0,0,0,0,0,0,
0,0,0,0,0,0,0,0,0,0,0,0,0,0,0,0
</chunk>
   </data>
  </layer>
  <group id="23" name="table_02_4" class="table" offsetx="0" offsety="-96">
   <layer id="25" name="0_chair" width="39" height="46">
    <data encoding="csv">
     <chunk x="16" y="16" width="16" height="16">
0,0,0,0,0,0,0,0,0,0,0,0,0,0,0,0,
0,0,0,0,0,0,0,0,0,0,0,0,0,0,0,0,
0,0,0,0,0,0,0,0,0,0,0,0,0,0,0,0,
0,0,0,0,0,0,0,0,0,0,0,0,0,0,0,0,
0,0,0,0,0,0,0,0,0,0,0,0,0,0,0,0,
174,175,176,0,0,0,0,0,0,0,0,0,0,0,0,0,
202,203,204,0,0,0,0,0,0,0,0,0,0,0,0,0,
0,0,0,0,0,0,0,0,0,0,0,0,0,0,0,0,
0,0,0,0,0,0,0,0,0,0,0,0,0,0,0,0,
0,0,0,0,0,0,0,0,0,0,0,0,0,0,0,0,
0,0,0,0,0,0,0,0,0,0,0,0,0,0,0,0,
0,0,0,0,0,0,0,0,0,0,0,0,0,0,0,0,
0,0,0,0,0,0,0,0,0,0,0,0,0,0,0,0,
0,0,0,0,0,0,0,0,0,0,0,0,0,0,0,0,
0,0,0,0,0,0,0,0,0,0,0,0,0,0,0,0,
0,0,0,0,0,0,0,0,0,0,0,0,0,0,0,0
</chunk>
    </data>
   </layer>
   <layer id="21" name="1_table" width="39" height="46">
    <data encoding="csv">
     <chunk x="16" y="16" width="16" height="16">
0,0,0,0,0,0,0,0,0,0,0,0,0,0,0,0,
0,0,0,0,0,0,0,0,0,0,0,0,0,0,0,0,
0,0,0,0,0,0,0,0,0,0,0,0,0,0,0,0,
65,66,67,0,0,0,0,0,0,0,0,0,0,0,0,0,
93,94,95,0,0,0,0,0,0,0,0,0,0,0,0,0,
0,0,0,0,0,0,0,0,0,0,0,0,0,0,0,0,
0,0,0,0,0,0,0,0,0,0,0,0,0,0,0,0,
0,0,0,0,0,0,0,0,0,0,0,0,0,0,0,0,
0,0,0,0,0,0,0,0,0,0,0,0,0,0,0,0,
0,0,0,0,0,0,0,0,0,0,0,0,0,0,0,0,
0,0,0,0,0,0,0,0,0,0,0,0,0,0,0,0,
0,0,0,0,0,0,0,0,0,0,0,0,0,0,0,0,
0,0,0,0,0,0,0,0,0,0,0,0,0,0,0,0,
0,0,0,0,0,0,0,0,0,0,0,0,0,0,0,0,
0,0,0,0,0,0,0,0,0,0,0,0,0,0,0,0,
0,0,0,0,0,0,0,0,0,0,0,0,0,0,0,0
</chunk>
    </data>
   </layer>
   <layer id="22" name="2_chair" width="39" height="46">
    <data encoding="csv">
     <chunk x="16" y="16" width="16" height="16">
143,144,145,0,0,0,0,0,0,0,0,0,0,0,0,0,
171,172,173,0,0,0,0,0,0,0,0,0,0,0,0,0,
199,200,201,0,0,0,0,0,0,0,0,0,0,0,0,0,
0,0,0,0,0,0,0,0,0,0,0,0,0,0,0,0,
0,0,0,0,0,0,0,0,0,0,0,0,0,0,0,0,
0,0,0,0,0,0,0,0,0,0,0,0,0,0,0,0,
0,0,0,0,0,0,0,0,0,0,0,0,0,0,0,0,
0,0,0,0,0,0,0,0,0,0,0,0,0,0,0,0,
0,0,0,0,0,0,0,0,0,0,0,0,0,0,0,0,
0,0,0,0,0,0,0,0,0,0,0,0,0,0,0,0,
0,0,0,0,0,0,0,0,0,0,0,0,0,0,0,0,
0,0,0,0,0,0,0,0,0,0,0,0,0,0,0,0,
0,0,0,0,0,0,0,0,0,0,0,0,0,0,0,0,
0,0,0,0,0,0,0,0,0,0,0,0,0,0,0,0,
0,0,0,0,0,0,0,0,0,0,0,0,0,0,0,0,
0,0,0,0,0,0,0,0,0,0,0,0,0,0,0,0
</chunk>
    </data>
   </layer>
  </group>
  <layer id="40" name="frame" width="39" height="46">
   <data encoding="csv">
    <chunk x="0" y="0" width="16" height="16">
0,0,0,0,0,0,894,895,896,895,896,896,896,896,896,896,
0,0,0,0,0,0,930,931,0,0,0,0,0,0,0,0,
0,0,0,0,0,0,1110,0,0,0,0,0,0,0,0,0,
0,0,0,0,0,0,1110,0,0,0,0,0,0,0,0,0,
0,0,0,0,0,0,1110,0,0,0,0,0,0,0,0,0,
0,0,0,0,0,0,1110,0,0,0,0,0,0,0,0,0,
0,0,0,0,0,0,1110,0,0,0,0,0,0,0,0,0,
0,0,0,0,0,0,1110,0,0,0,0,0,0,0,0,0,
0,0,0,0,0,0,1110,0,0,0,0,0,0,0,0,0,
0,0,0,0,0,0,1110,0,0,0,0,0,0,0,0,0,
0,0,0,0,0,0,1110,0,0,0,0,0,0,0,0,0,
0,0,0,0,0,0,1110,0,0,0,0,0,0,0,0,0,
0,0,0,0,0,0,0,0,0,0,0,0,0,0,0,0,
0,0,0,0,0,0,0,0,0,0,0,0,0,0,0,0,
0,0,0,0,0,0,0,0,0,0,0,0,0,0,0,0,
0,0,0,0,0,0,0,0,0,0,0,0,0,0,0,0
</chunk>
    <chunk x="16" y="0" width="16" height="16">
896,897,898,899,0,0,0,0,0,0,0,0,0,0,0,0,
0,0,934,935,0,0,0,0,0,0,0,0,0,0,0,0,
0,0,970,971,0,0,0,0,0,0,0,0,0,0,0,0,
0,0,970,1119,0,0,0,0,0,0,0,0,0,0,0,0,
0,0,0,1119,0,0,0,0,0,0,0,0,0,0,0,0,
0,0,0,1119,0,0,0,0,0,0,0,0,0,0,0,0,
0,0,0,1119,0,0,0,0,0,0,0,0,0,0,0,0,
0,0,0,1119,0,0,0,0,0,0,0,0,0,0,0,0,
0,0,0,1119,0,0,0,0,0,0,0,0,0,0,0,0,
0,0,0,1119,0,0,0,0,0,0,0,0,0,0,0,0,
0,0,0,1119,0,0,0,0,0,0,0,0,0,0,0,0,
0,0,0,1119,0,0,0,0,0,0,0,0,0,0,0,0,
0,0,0,0,0,0,0,0,0,0,0,0,0,0,0,0,
0,0,0,0,0,0,0,0,0,0,0,0,0,0,0,0,
0,0,0,0,0,0,0,0,0,0,0,0,0,0,0,0,
0,0,0,0,0,0,0,0,0,0,0,0,0,0,0,0
</chunk>
   </data>
  </layer>
 </group>
 <layer id="52" name="object" width="39" height="46" visible="0">
  <data encoding="csv"/>
 </layer>
 <layer id="51" name="door" width="39" height="46" visible="0">
  <data encoding="csv">
   <chunk x="0" y="0" width="16" height="16">
0,0,0,0,0,0,0,0,0,0,0,0,0,0,0,0,
0,0,0,0,0,0,0,0,0,0,0,1446,1447,1448,1449,0,
0,0,0,0,0,0,0,0,0,0,0,1482,1483,1484,1485,0,
0,0,0,0,0,0,0,0,0,0,0,1518,1519,1520,1521,0,
0,0,0,0,0,0,0,0,0,0,0,1554,1555,1556,1557,0,
0,0,0,0,0,0,0,0,0,0,0,0,0,0,0,0,
0,0,0,0,0,0,0,0,0,0,0,0,0,0,0,0,
0,0,0,0,0,0,0,0,0,0,0,0,0,0,0,0,
0,0,0,0,0,0,0,0,0,0,0,0,0,0,0,0,
0,0,0,0,0,0,0,0,0,0,0,0,0,0,0,0,
0,0,0,0,0,0,0,0,0,0,0,0,0,0,0,0,
0,0,0,0,0,0,0,0,0,0,0,0,0,0,0,0,
0,0,0,0,0,0,0,0,0,0,0,0,0,0,0,0,
0,0,0,0,0,0,0,0,0,0,0,0,0,0,0,0,
0,0,0,0,0,0,0,0,0,0,0,0,0,0,0,0,
0,0,0,0,0,0,0,0,0,0,0,0,0,0,0,0
</chunk>
  </data>
 </layer>
</map>
